X: 731
T: Ey Âfet-i Cân-ı Âşık
C: Dede Efendi
O: Turkey
F: http://compmusic.upf.edu/node/140
N: pesendide--nakis--yuruksemai--ey_afet-i_can--dede_efendi
N: makam= pesendide
N: form= nakis
N: usul= yuruksemai = 6/8
M: 6/8
L: 1/16
K: C _1/4B ^f  
Q: 1/4=90
%%MIDI tuningsystem comma53
z16 e2d2^c2d2  | e4{=f}e2f2 e2f2d4 a8  | \
w:  Ey   |  â *  *  *  fet_ *  i  cân_  | 
a2g2g8g2=f2 g2_b2a2g2  | 
w:  ı  *  â şık  *  â  | 
g2=f2f2e2 d6z2 d6^c2  | e2d2d2^c2 ^9/8f2e2d2c2 =B8  | \
w:  zâr   *  *  *  *  Vey   |  gam *  *  *  ze  *  i  *  şû  | 
=B4B2A2 A2c2B2A2 A2G2G2F2  | 
w:  hi  gi *  *  *  bi  *  hun  | 
G12z4 e2d2^c2d2  | e4{=f}e2f2 e2f2e2f2 g2f2e2f2  | \
w:  hâr   Zin  |  hâr  *  *  *  *  *  *  *  zin  | 
g4{_b}a4 g4=f4 e4{f}e2f2  | 
w:  hâr   | 
e2d2d2^c2 d4d2c2 d2c2d2e2  | d4e8z4 e2d2^c2d2  | \
w:  *  *  ol *  *  ma  *  böy  |  le   *  Zin  | 
e4{=f}e2f2 e2f2e2f2 g2f2e2f2  | 
w:  hâr  *  *  *  *  *  *  *  zin  | 
g4{_b}a4 g4=f4 e4{f}e2f2  | e2d2d2^c2 d4d2c2 d2c2d2e2  | \
w:  hâr   |  *  *  ol *  *  ma  *  böy  | 
(3g2^9/8f2e2(3d2^c2=B2 B6z2 B4e4  | 
w:  le   *  *  *  *  *  *  Ağ  | 
=B8 B4B2A2 B3AG4  | A2_7/8B2d2^c2 B2A2A2G2 F2G2A2G2  | \
w:  yâr_ ı  nü *  vâz   |  â *  *  *  şık_ *  ı  *  â  | 
G12z4 z8  | 
w:  zâr    | 
G8 G4G4 c8  | B4c8c2B2 B4{c}B2A2  | A4B8A2G2 G6z2  | \
w:  Ah  me ded_ ey  |  le  â şık  *  â  |  zâr    | 
d6^c2 f2e2d2c2 d3c=B4  | 
w:  Ah  *  za *  lim  *  ey   | 
=B12B2A2 A4{B}A2G2  | A4=B8A2G2 G6z2  | \
w:  *  si *  tem  |  kâr   | 
d4{e}d2^c2 =B4{c}B2A2 B4c4  | d12z4 z8  | 
w:  gel  *  *  *  câ *  *  *  nım   |  gel    | 
z4G4 d4d4 e2=f2e2d2  | e2d2d2^c2 d4d4 e2=f2e2d2  | \
w:  Hâl_ i  pe rî  |  şâ *  *  *  nı ma  rah  | 
z4d4 {_b}a4a4 a2g2g2=f2  | 
w:  mey *  le  gü zel    | 
g4{_b}a2g2 g2=f2f2e2 f3ed4  | z4d4 d2^c2d2c2 d2c2d2e2  | \
w:  Ba *  *  *  şın  *  i *  çün   |  ol ma  *  ce *  fâ  | 
(3g2f2e2(3d2c2=B2 B6z2 B4e4  | 
w:  cû   *  *  *  *  *  *  Her   | 
=B8 B4B2A2 B3AG4  | A2B2d2^c2 B2A2A2G2 F2G2A2G2  | \
w:  tav rı  pe *  sen  |  dî *  *  *  de  *  e *  fen  | 
G12z4 e2d2^c2d2  | 
w:  dim   SAZ  | 
e4{=f}e2f2 e2f2d4 a8  | a2g2g8g2=f2 g2_b2a2g2  | \
w:  â *  *  *  fet_ *  i  cân_  |  ı  *  â şık  *  â  | 
g2=f2f2e2 d6z2 d6^c2  | 
w:  zâr   *  *  *  *  Vey   | 
e2d2d2^c2 ^9/8f2e2d2c2 =B8  | =B4B2A2 A2c2B2A2 A2G2G2F2  | \
w:  gam *  *  *  ze  *  i  *  şû  |  hi  gi *  *  *  bi  *  hun  | 
G12z4 e2d2^c2d2  | 
w:  hâr   Zin  | 
e4{=f}e2f2 e2f2e2f2 g2f2e2f2  | g4{_b}a4 g4=f4 e4{f}e2f2  | \
w:  hâr  *  *  *  *  *  *  *  zin  |  hâr   | 
e2d2d2^c2 d4d2c2 d2c2d2e2  | 
w:  *  *  ol *  *  ma  *  böy  | 
d4e8z4 e2d2^c2d2  | e4{=f}e2f2 e2f2e2f2 g2f2e2f2  | \
w:  le   *  Zin  |  hâr  *  *  *  *  *  *  *  zin  | 
g4{_b}a4 g4=f4 e4{f}e2f2  | 
w:  hâr   | 
e2d2d2^c2 d4d2c2 d2c2d2e2  | (3g2^9/8f2e2(3d2^c2=B2 B6z2 B4e4  | 
w:  *  *  ol *  *  ma  *  böy  |  le   *  *  *  *  *  *  Ağ  | 
=B8 B4B2A2 B3AG4  | A2_7/8B2d2^c2 B2A2A2G2 F2G2A2G2  | \
w:  yâr_ ı  nü *  vâz   |  â *  *  *  şık_ *  ı  *  â  | 
G12z4 z8  | 
w:  zâr    | 
G8 G4G4 c8  | B4c8c2B2 B4{c}B2A2  | A4B8A2G2 G6z2  | \
w:  Ah  me ded_ ey  |  le  â şık  *  â  |  zâr    | 
d6^c2 f2e2d2c2 d3c=B4  | 
w:  Ah  *  za *  lim  *  ey   | 
=B12B2A2 A4{B}A2G2  | A4=B8A2G2 G6z2  | \
w:  *  si *  tem  |  kâr   | 
d4{e}d2^c2 =B4{c}B2A2 B4c4  | d12z4 z8  | 
w:  gel  *  *  *  câ *  *  *  nım   |  gel    | 
z4G4 d4d4 e2=f2e2d2  | e2d2d2^c2 d4d4 e2=f2e2d2  | \
w:  Hâl_ i  pe rî  |  şâ *  *  *  nı ma  rah  | 
z4d4 {_b}a4a4 a2g2g2=f2  | 
w:  mey *  le  gü zel    | 
g4{_b}a2g2 g2=f2f2e2 f3ed4  | z4d4 d2^c2d2c2 d2c2d2e2  | \
w:  Ba *  *  *  şın  *  i *  çün   |  ol ma  *  ce *  fâ  | 
(3g2f2e2(3d2c2=B2 B6z2 B4e4  | 
w:  cû   *  *  *  *  *  *  Her   | 
=B8 B4B2A2 B3AG4  | A2B2d2^c2 B2A2A2G2 F2G2A2G2  | \
w:  tav rı  pe *  sen  |  dî *  *  *  de  *  e *  fen  | 
G12z4 z8  | 
w:  dim    | 
|


